src/view/frontend/web/svg/heroicons/solid/document-report.svg

<svg viewBox="0 0 20 20" fill="currentColor" xmlns="http://www.w3.org/2000/svg">
<path fill-rule="evenodd" clip-rule="evenodd" d="M6 2C4.89543 2 4 2.89543 4 4V16C4 17.1046 4.89543 18 6 18H14C15.1046 18 16 17.1046 16 16V7.41421C16 6.88378 15.7893 6.37507 15.4142 6L12 2.58579C11.6249 2.21071 11.1162 2 10.5858 2H6ZM8 12C8 11.4477 7.55228 11 7 11C6.44772 11 6 11.4477 6 12V15C6 15.5523 6.44772 16 7 16C7.55228 16 8 15.5523 8 15V12ZM10 9C10.5523 9 11 9.44772 11 10V15C11 15.5523 10.5523 16 10 16C9.44772 16 9 15.5523 9 15V10C9 9.44772 9.44772 9 10 9ZM14 8C14 7.44772 13.5523 7 13 7C12.4477 7 12 7.44772 12 8V15C12 15.5523 12.4477 16 13 16C13.5523 16 14 15.5523 14 15V8Z" />
</svg>

<svg xmlns="http://www.w3.org/2000/svg" viewBox="0 0 20 20" fill="currentColor">
  <path fill-rule="evenodd" d="M6 2a2 2 0 00-2 2v12a2 2 0 002 2h8a2 2 0 002-2V7.414A2 2 0 0015.414 6L12 2.586A2 2 0 0010.586 2H6zm2 10a1 1 0 10-2 0v3a1 1 0 102 0v-3zm2-3a1 1 0 011 1v5a1 1 0 11-2 0v-5a1 1 0 011-1zm4-1a1 1 0 10-2 0v7a1 1 0 102 0V8z" clip-rule="evenodd"/>
</svg>
